dist/img/logo_white.svg

<svg
    width="302"
    height="56"
    viewBox="0 0 302 56"
    fill="white"
    class="logo__svg"
    xmlns="http://www.w3.org/2000/svg">
    <path
        d="M25.312 8.192L24.416 14.912H16.968V47H8.176V14.912H0.28V8.192H25.312ZM48.1149 47L41.7869 32.048H41.5069H39.3789V47H30.5869V8.192H40.9469C50.5789 8.192 55.3949 12.112 55.3949 19.952C55.3949 22.2293 54.9096 24.2827 53.9389 26.112C53.0056 27.9413 51.5309 29.36 49.5149 30.368L57.4669 47H48.1149ZM41.1709 25.944C43.0376 25.944 44.3816 25.4773 45.2029 24.544C46.0243 23.5733 46.4349 22.0427 46.4349 19.952C46.4349 18.048 45.9869 16.648 45.0909 15.752C44.2323 14.856 42.8323 14.408 40.8909 14.408H39.3789V25.944H41.1709ZM87.2484 35.8C87.2484 38.1147 86.7631 40.1867 85.7924 42.016C84.8218 43.808 83.3658 45.2453 81.4244 46.328C79.4831 47.3733 77.0938 47.896 74.2564 47.896C70.0004 47.896 66.7711 46.7947 64.5684 44.592C62.3658 42.3893 61.2644 39.4587 61.2644 35.8V8.192H70.0564V35.408C70.0564 37.424 70.3738 38.9173 71.0084 39.888C71.6804 40.8587 72.7631 41.344 74.2564 41.344C75.7498 41.344 76.8138 40.8587 77.4484 39.888C78.1204 38.9173 78.4564 37.424 78.4564 35.408V8.192H87.2484V35.8ZM105.24 7.24C107.666 7.24 109.794 7.65066 111.624 8.472C113.49 9.29333 115.189 10.5253 116.72 12.168L112.856 16.76C110.616 14.7067 108.394 13.68 106.192 13.68C104.922 13.68 103.933 14.0533 103.224 14.8C102.514 15.5467 102.16 16.536 102.16 17.768C102.16 18.9627 102.57 19.952 103.392 20.736C104.213 21.4827 105.8 22.36 108.152 23.368C110.317 24.3387 112.072 25.3467 113.416 26.392C114.76 27.4 115.768 28.6507 116.44 30.144C117.149 31.6373 117.504 33.4853 117.504 35.688C117.504 38.04 116.962 40.1493 115.88 42.016C114.834 43.8827 113.322 45.3387 111.344 46.384C109.365 47.4293 107.05 47.952 104.4 47.952C101.637 47.952 99.2477 47.4667 97.2317 46.496C95.2157 45.5253 93.4051 44.1813 91.7997 42.464L95.9997 37.816C97.3437 39.0107 98.6131 39.9253 99.8077 40.56C101.04 41.1573 102.346 41.456 103.728 41.456C105.258 41.456 106.416 41.008 107.2 40.112C107.984 39.1787 108.376 37.928 108.376 36.36C108.376 34.9413 107.984 33.784 107.2 32.888C106.416 31.9547 104.997 31.0773 102.944 30.256C99.3597 28.7627 96.8211 27.12 95.3277 25.328C93.8344 23.4987 93.0877 21.2027 93.0877 18.44C93.0877 16.2373 93.6104 14.296 94.6557 12.616C95.7011 10.8987 97.1384 9.57333 98.9677 8.64C100.834 7.70666 102.925 7.24 105.24 7.24ZM140.719 47V30.256H132.599V47H123.807V8.192H132.599V23.368H140.719V8.192H149.511V47H140.719Z"/>
    <path
        d="M162.34 54.8V29.45H163.588V33.74C164.29 32.31 165.382 31.166 166.864 30.308C168.372 29.45 169.932 29.021 171.544 29.021C174.118 29.021 176.302 29.931 178.096 31.751C179.916 33.545 180.826 35.703 180.826 38.225C180.826 40.747 179.916 42.918 178.096 44.738C176.302 46.532 174.118 47.429 171.544 47.429C169.984 47.429 168.463 47.013 166.981 46.181C165.499 45.323 164.368 44.179 163.588 42.749V54.8H162.34ZM163.51 38.264C163.51 40.448 164.303 42.346 165.889 43.958C167.501 45.544 169.399 46.337 171.583 46.337C173.793 46.337 175.678 45.544 177.238 43.958C178.798 42.346 179.578 40.448 179.578 38.264C179.578 36.054 178.785 34.143 177.199 32.531C175.639 30.919 173.767 30.113 171.583 30.113C169.399 30.113 167.501 30.932 165.889 32.57C164.303 34.182 163.51 36.08 163.51 38.264ZM195.152 47H193.904V17.789H195.152V32.843C196.452 30.295 198.701 29.021 201.899 29.021C204.083 29.021 205.916 29.775 207.398 31.283C208.906 32.791 209.66 34.624 209.66 36.782V47H208.412V36.782C208.412 34.962 207.775 33.402 206.501 32.102C205.227 30.776 203.693 30.113 201.899 30.113C200.105 30.113 198.532 30.776 197.18 32.102C195.828 33.428 195.152 34.988 195.152 36.782V47ZM231.448 47.429C228.952 47.429 226.807 46.506 225.013 44.66C223.219 42.788 222.322 40.617 222.322 38.147C222.322 35.677 223.232 33.545 225.052 31.751C226.872 29.931 229.056 29.021 231.604 29.021C234.178 29.021 236.362 29.931 238.156 31.751C239.976 33.545 240.886 35.69 240.886 38.186C240.886 40.656 240.002 42.814 238.234 44.66C236.466 46.506 234.321 47.429 231.799 47.429H231.448ZM239.638 38.264C239.638 36.054 238.845 34.143 237.259 32.531C235.699 30.919 233.827 30.113 231.643 30.113C229.459 30.113 227.561 30.932 225.949 32.57C224.363 34.182 223.57 36.08 223.57 38.264C223.57 40.448 224.363 42.346 225.949 43.958C227.561 45.544 229.459 46.337 231.643 46.337C233.853 46.337 235.738 45.544 237.298 43.958C238.858 42.346 239.638 40.448 239.638 38.264ZM260.226 46.142V47.234C258.38 47.234 256.807 46.623 255.507 45.401C254.207 44.153 253.557 42.567 253.557 40.643V22.391H254.805V29.489H260.187V30.581H254.805V40.643C254.805 42.229 255.325 43.542 256.365 44.582C257.431 45.622 258.718 46.142 260.226 46.142ZM280.866 47.429C278.37 47.429 276.225 46.506 274.431 44.66C272.637 42.788 271.74 40.617 271.74 38.147C271.74 35.677 272.65 33.545 274.47 31.751C276.29 29.931 278.474 29.021 281.022 29.021C283.596 29.021 285.78 29.931 287.574 31.751C289.394 33.545 290.304 35.69 290.304 38.186C290.304 40.656 289.42 42.814 287.652 44.66C285.884 46.506 283.739 47.429 281.217 47.429H280.866ZM289.056 38.264C289.056 36.054 288.263 34.143 286.677 32.531C285.117 30.919 283.245 30.113 281.061 30.113C278.877 30.113 276.979 30.932 275.367 32.57C273.781 34.182 272.988 36.08 272.988 38.264C272.988 40.448 273.781 42.346 275.367 43.958C276.979 45.544 278.877 46.337 281.061 46.337C283.271 46.337 285.156 45.544 286.716 43.958C288.276 42.346 289.056 40.448 289.056 38.264Z"/>
</svg>

<svg width="302" height="56" fill="#fff" class="logo__svg" xmlns="http://www.w3.org/2000/svg"><path d="M25.312 8.192l-.896 6.72h-7.448V47H8.176V14.912H.28v-6.72h25.032zM48.115 47l-6.328-14.952h-2.408V47h-8.792V8.192h10.36c9.632 0 14.448 3.92 14.448 11.76 0 2.277-.485 4.33-1.456 6.16-.933 1.83-2.408 3.248-4.424 4.256L57.467 47h-9.352zM41.17 25.944c1.867 0 3.21-.467 4.032-1.4.821-.97 1.232-2.501 1.232-4.592 0-1.904-.448-3.304-1.344-4.2-.859-.896-2.259-1.344-4.2-1.344h-1.512v11.536h1.792zM87.248 35.8c0 2.315-.485 4.387-1.456 6.216-.97 1.792-2.426 3.23-4.368 4.312-1.94 1.045-4.33 1.568-7.168 1.568-4.256 0-7.485-1.101-9.688-3.304-2.202-2.203-3.304-5.133-3.304-8.792V8.192h8.792v27.216c0 2.016.318 3.51.952 4.48.672.97 1.755 1.456 3.248 1.456 1.494 0 2.558-.485 3.192-1.456.672-.97 1.008-2.464 1.008-4.48V8.192h8.792V35.8zM105.24 7.24c2.426 0 4.554.41 6.384 1.232 1.866.821 3.565 2.053 5.096 3.696l-3.864 4.592c-2.24-2.053-4.462-3.08-6.664-3.08-1.27 0-2.259.373-2.968 1.12-.71.747-1.064 1.736-1.064 2.968 0 1.195.41 2.184 1.232 2.968.821.747 2.408 1.624 4.76 2.632 2.165.97 3.92 1.979 5.264 3.024a9.508 9.508 0 0 1 3.024 3.752c.709 1.493 1.064 3.341 1.064 5.544 0 2.352-.542 4.461-1.624 6.328-1.046 1.867-2.558 3.323-4.536 4.368-1.979 1.045-4.294 1.568-6.944 1.568-2.763 0-5.152-.485-7.168-1.456-2.016-.97-3.827-2.315-5.432-4.032l4.2-4.648c1.344 1.195 2.613 2.11 3.808 2.744a8.871 8.871 0 0 0 3.92.896c1.53 0 2.688-.448 3.472-1.344.784-.933 1.176-2.184 1.176-3.752 0-1.419-.392-2.576-1.176-3.472-.784-.933-2.203-1.81-4.256-2.632-3.584-1.493-6.123-3.136-7.616-4.928-1.494-1.83-2.24-4.125-2.24-6.888 0-2.203.522-4.144 1.568-5.824 1.045-1.717 2.482-3.043 4.312-3.976 1.866-.933 3.957-1.4 6.272-1.4zM140.719 47V30.256h-8.12V47h-8.792V8.192h8.792v15.176h8.12V8.192h8.792V47h-8.792zm21.621 7.8V29.45h1.248v4.29c.702-1.43 1.794-2.574 3.276-3.432 1.508-.858 3.068-1.287 4.68-1.287 2.574 0 4.758.91 6.552 2.73 1.82 1.794 2.73 3.952 2.73 6.474 0 2.522-.91 4.693-2.73 6.513-1.794 1.794-3.978 2.691-6.552 2.691-1.56 0-3.081-.416-4.563-1.248-1.482-.858-2.613-2.002-3.393-3.432V54.8h-1.248zm1.17-16.536c0 2.184.793 4.082 2.379 5.694 1.612 1.586 3.51 2.379 5.694 2.379 2.21 0 4.095-.793 5.655-2.379 1.56-1.612 2.34-3.51 2.34-5.694 0-2.21-.793-4.121-2.379-5.733-1.56-1.612-3.432-2.418-5.616-2.418-2.184 0-4.082.819-5.694 2.457-1.586 1.612-2.379 3.51-2.379 5.694zM195.152 47h-1.248V17.789h1.248v15.054c1.3-2.548 3.549-3.822 6.747-3.822 2.184 0 4.017.754 5.499 2.262 1.508 1.508 2.262 3.341 2.262 5.499V47h-1.248V36.782c0-1.82-.637-3.38-1.911-4.68-1.274-1.326-2.808-1.989-4.602-1.989-1.794 0-3.367.663-4.719 1.989-1.352 1.326-2.028 2.886-2.028 4.68V47zm36.296.429c-2.496 0-4.641-.923-6.435-2.769-1.794-1.872-2.691-4.043-2.691-6.513 0-2.47.91-4.602 2.73-6.396 1.82-1.82 4.004-2.73 6.552-2.73 2.574 0 4.758.91 6.552 2.73 1.82 1.794 2.73 3.939 2.73 6.435 0 2.47-.884 4.628-2.652 6.474-1.768 1.846-3.913 2.769-6.435 2.769h-.351zm8.19-9.165c0-2.21-.793-4.121-2.379-5.733-1.56-1.612-3.432-2.418-5.616-2.418-2.184 0-4.082.819-5.694 2.457-1.586 1.612-2.379 3.51-2.379 5.694s.793 4.082 2.379 5.694c1.612 1.586 3.51 2.379 5.694 2.379 2.21 0 4.095-.793 5.655-2.379 1.56-1.612 2.34-3.51 2.34-5.694zm20.588 7.878v1.092c-1.846 0-3.419-.611-4.719-1.833-1.3-1.248-1.95-2.834-1.95-4.758V22.391h1.248v7.098h5.382v1.092h-5.382v10.062c0 1.586.52 2.899 1.56 3.939 1.066 1.04 2.353 1.56 3.861 1.56zm20.64 1.287c-2.496 0-4.641-.923-6.435-2.769-1.794-1.872-2.691-4.043-2.691-6.513 0-2.47.91-4.602 2.73-6.396 1.82-1.82 4.004-2.73 6.552-2.73 2.574 0 4.758.91 6.552 2.73 1.82 1.794 2.73 3.939 2.73 6.435 0 2.47-.884 4.628-2.652 6.474-1.768 1.846-3.913 2.769-6.435 2.769h-.351zm8.19-9.165c0-2.21-.793-4.121-2.379-5.733-1.56-1.612-3.432-2.418-5.616-2.418-2.184 0-4.082.819-5.694 2.457-1.586 1.612-2.379 3.51-2.379 5.694s.793 4.082 2.379 5.694c1.612 1.586 3.51 2.379 5.694 2.379 2.21 0 4.095-.793 5.655-2.379 1.56-1.612 2.34-3.51 2.34-5.694z"/></svg>
